X:1
T:Title
%%score { 1 | 2 }
L:1/8
Q:1/4=80
M:6/8
K:Eb
V:1 treble nm="Grand Piano"
V:2 bass 
V:1
 G>FE GFE | [DF]>[EG][DA] [DA] G2 | ccc B>AG | [EF]>[EG][EF] [DF]3 | G>FE GFE | %5
w: Frank~N.~Shepperd * * * * *|||||
 [DF]>[DG][DA] [DA] [EG]2 | [Ec][Ec][Ec] cBG | [EG][DG]>[DF] E3 | B>BB B>BB | [Ec][Ec][Ec] c B2 | %10
w: |||||
 e[Ec][EA] cBG | [EF]>[EG][EF] [DF]3 | G>FE GFE | [DF]>[DG][DA] [DA] G2 | %14
w: ||||
 B>AG [Cc][Cc][CEA][Q:1/4=78][Q:1/4=77][Q:1/4=76][Q:1/4=75][Q:1/4=74][Q:1/4=72][Q:1/4=71][Q:1/4=70][Q:1/4=69][Q:1/4=68][Q:1/4=67][Q:1/4=65] | %15
w: |
 [B,EG]>[G,E][A,DF] [G,E]3[Q:1/4=64][Q:1/4=63][Q:1/4=62][Q:1/4=61] |] %16
w: |
V:2
 [E,B,E]>[E,A,E][E,G,] [E,B,E][E,A,E][E,G,] | [B,,B,]>[B,,B,][B,,B,] [B,,B,] [E,B,E]2 | %2
 [A,E][A,E][A,E] [G,B,E]>[F,B,D][E,B,E] | [C,=A,]>[C,A,][C,A,] [B,,B,]3 | %4
 [E,B,E]>[E,A,E][E,G,] [E,B,E][E,A,E][E,G,] | [B,,B,]>[B,,B,][B,,B,] [B,,B,] [E,B,]2 | %6
 [A,,A,][A,,A,][A,,A,] [E,A,E][E,G,E][E,B,E] | [B,,B,][B,,B,]>[B,,A,] [E,G,]3 | %8
 [E,G,E]>[E,G,E][E,G,E] [E,G,E]>[E,G,E][E,G,E] | [A,,A,][A,,A,][C,A,] [E,A,E] [E,G,E]2 | %10
 [A,,CE][A,,A,][C,A,] [E,A,E][E,G,E][E,B,E] | [C,=A,]>[C,A,][C,A,] [B,,B,]3 | %12
 [E,B,E]>[E,A,E][E,G,] [E,B,E][E,A,E][E,G,] | [B,,B,]>[B,,B,][B,,B,] [B,,B,] [E,B,E]2 | %14
 [E,G,_D]>[E,A,D][E,B,D] [A,,A,][A,,A,]A,, | B,,>B,,B,, E,3 |] %16

